X: 79
T:Sally Goodin
M:4/4
L:1/8
Q:120
C:Traditional
R:Reel
K:A
AB|"A"cABc A2 AB|cABA F A2 B|cABc ABAF|[1"E"ECEA "A"F A2 B:|[2"E"ECEA "A
"F A3||!
"A"ABcd e2 cd|efed cAcd|efed cdcB||[1"E"ABAF "A"EF AB:|[2"E"ABAF "A"EF A
2|]
